X: 27824
T: Mossy Banks, The
R: reel
M: 4/4
K: Gmajor
gedB G3A|BAGB AE~E2|DEGA Bddg|edgd egga|
gedB G3A|BAGB AE~E2|DEGA Bdge|1 dBAG EGG2:|2 dBAG EGGD||
G3B AEGE|DEGG AGEA|Bd~d2 edge|dBGA BAAB|
G3B AEGE|DEGG AGEA|Bd~d2 gedB|A2GA BGG2:|
g2dg egdg|~g2bg agef|g2dg egdB|A2GA BGG2|
g2dg egdg|~g2bg aged|~g3a g2ed|e/f/gfa gdef:|

